X: 6805
T: Charles Sutherland
R: reel
M: 4/4
K: Dmajor
|:A2|d2- df ecdB|A2 FA BAFB|B2 GB A2 fd|efed cABc|
d2- df ecdB|A2 FA BAFB|B2 GB Afaf|gecf f2:|
|:g2|f2 df afd=c|B2 gB A2 fA|G2 eG F2 fd|efed cAAg|
f2 df afd=c|Bdgd AdfA|B2 GB Afaf|gAce d2:|

